assets/Mountain railway/Flat/mountain_railway_flat.svg

<svg width="32" height="32" viewBox="0 0 32 32" fill="none" xmlns="http://www.w3.org/2000/svg">
<path d="M14.6468 5.59486L2.23749 20.2201C2.08417 20.4008 2 20.6301 2 20.8671V30H30V17L17.5327 5.42323C16.6975 4.64772 15.3841 4.72583 14.6468 5.59486Z" fill="#008463"/>
<path d="M24.0231 2.7901L9.22863 20.7228C9.08083 20.902 9 21.127 9 21.3592V30H30V5.99997L27.0525 2.72494C26.2349 1.81651 24.8009 1.84736 24.0231 2.7901Z" fill="#00D26A"/>
<path d="M16 28C16 29.1046 15.1046 30 14 30C12.8954 30 12 29.1046 12 28C12 26.8954 12.8954 26 14 26C15.1046 26 16 26.8954 16 28ZM22 28C22 29.1046 21.1046 30 20 30C18.8954 30 18 29.1046 18 28C18 26.8954 18.8954 26 20 26C21.1046 26 22 26.8954 22 28ZM30 28H28C28 29.1046 28.8954 30 30 30V28Z" fill="#636363"/>
<path d="M11 12C11 11.4477 11.4477 11 12 11H30V13L28 18L30 23V28H12C11.4477 28 11 27.5523 11 27V23L13 18L11 13V12Z" fill="#FFB02E"/>
<path d="M12 24.5C12 24.2239 12.2239 24 12.5 24H13.5C13.7761 24 14 24.2239 14 24.5V24.5C14 24.7761 13.7761 25 13.5 25H12.5C12.2239 25 12 24.7761 12 24.5V24.5Z" fill="#F9C23C"/>
<path d="M11 13H30V14L29 18L30 22V23H11V22L12 18L11 14V13Z" fill="#E6E6E6"/>
<path d="M12 24.5C12 24.2239 12.2239 24 12.5 24H13.5C13.7761 24 14 24.2239 14 24.5V24.5C14 24.7761 13.7761 25 13.5 25H12.5C12.2239 25 12 24.7761 12 24.5V24.5Z" fill="#FF6723"/>
<path d="M13 14H11V22H13C13.5523 22 14 21.5523 14 21V15C14 14.4477 13.5523 14 13 14ZM29 14H30V22H29C28.4477 22 28 21.5523 28 21V15C28 14.4477 28.4477 14 29 14ZM16 15C16 14.4477 16.4477 14 17 14H19C19.5523 14 20 14.4477 20 15V21C20 21.5523 19.5523 22 19 22H17C16.4477 22 16 21.5523 16 21V15ZM23 14C22.4477 14 22 14.4477 22 15V21C22 21.5523 22.4477 22 23 22H25C25.5523 22 26 21.5523 26 21V15C26 14.4477 25.5523 14 25 14H23Z" fill="#26C9FC"/>
<path d="M14 28H20V28C20 28.5523 19.5523 29 19 29H15C14.4477 29 14 28.5523 14 28V28Z" fill="#D3D3D3"/>
</svg>

<svg xmlns="http://www.w3.org/2000/svg" width="32" height="32" fill="none"><path fill="#008463" d="M14.647 5.595 2.237 20.22a1 1 0 0 0-.237.647V30h28V17L17.533 5.423a2 2 0 0 0-2.886.172Z"/><path fill="#00D26A" d="M24.023 2.79 9.23 20.723a1 1 0 0 0-.229.636V30h21V6l-2.948-3.275a2 2 0 0 0-3.029.065Z"/><path fill="#636363" d="M16 28a2 2 0 1 1-4 0 2 2 0 0 1 4 0Zm6 0a2 2 0 1 1-4 0 2 2 0 0 1 4 0Zm8 0h-2a2 2 0 0 0 2 2v-2Z"/><path fill="#FFB02E" d="M11 12a1 1 0 0 1 1-1h18v2l-2 5 2 5v5H12a1 1 0 0 1-1-1v-4l2-5-2-5v-1Z"/><path fill="#F9C23C" d="M12 24.5a.5.5 0 0 1 .5-.5h1a.5.5 0 0 1 0 1h-1a.5.5 0 0 1-.5-.5Z"/><path fill="#E6E6E6" d="M11 13h19v1l-1 4 1 4v1H11v-1l1-4-1-4v-1Z"/><path fill="#FF6723" d="M12 24.5a.5.5 0 0 1 .5-.5h1a.5.5 0 0 1 0 1h-1a.5.5 0 0 1-.5-.5Z"/><path fill="#26C9FC" d="M13 14h-2v8h2a1 1 0 0 0 1-1v-6a1 1 0 0 0-1-1Zm16 0h1v8h-1a1 1 0 0 1-1-1v-6a1 1 0 0 1 1-1Zm-13 1a1 1 0 0 1 1-1h2a1 1 0 0 1 1 1v6a1 1 0 0 1-1 1h-2a1 1 0 0 1-1-1v-6Zm7-1a1 1 0 0 0-1 1v6a1 1 0 0 0 1 1h2a1 1 0 0 0 1-1v-6a1 1 0 0 0-1-1h-2Z"/><path fill="#D3D3D3" d="M14 28h6a1 1 0 0 1-1 1h-4a1 1 0 0 1-1-1Z"/></svg>
